X: 54
T:Fred Roden's Reel
% Nottingham Music Database
S:Kevin Briggs, via EF
M:4/4
L:1/4
K:D
P:A
A|"D"dd/2c/2 d/2A/2F/2A/2|"D"df/2g/2 af|"G"g/2f/2e/2g/2 "D"f/2e/2d/2f/2|\
"E7"e/2d/2c/2B/2 "A7"A(3A/2B/2c/2|
"D"dd/2c/2 d/2A/2F/2A/2|"D"df/2g/2 af|"G"b/2g/2e/2c/2 "A7"A/2c/2e/2g/2|"D"fd d\
:|
P:B
A,-|"D"A,/2D/2F/2A/2 dd|"D"D/2F/2A/2d/2 "A7"fA,-|"D"A,/2D/2F/2A/2 dd|\
"D"a/2f/2d/2f/2 "A7"eA,-|
"D"A,/2D/2F/2A/2 dd|"D"D/2F/2A/2d/2 ff|"G"b/2g/2e/2c/2 "A7"A/2c/2e/2g/2|\
"D"fd d:|<end>
<start>
